assets/icons/24px/stroke/tree-map-down-24px.svg

<svg width="24" height="24" viewBox="0 0 24 24" fill="none" xmlns="http://www.w3.org/2000/svg">
<path fill-rule="evenodd" clip-rule="evenodd" d="M11 11H9.5C9.47799 11 9.45604 11 9.43417 11C8.54769 10.9999 7.78387 10.9999 7.17221 11.0821C6.5167 11.1703 5.88835 11.369 5.37868 11.8787C4.86902 12.3883 4.67028 13.0167 4.58215 13.6722C4.49991 14.2839 4.49995 15.0477 4.5 15.9342L4.5 16H6.5C6.5 15.0289 6.50213 14.4012 6.56431 13.9387C6.62263 13.505 6.71677 13.369 6.7929 13.2929C6.86902 13.2168 7.00497 13.1226 7.43871 13.0643C7.90122 13.0021 8.52893 13 9.5 13H14.5C15.4711 13 16.0988 13.0021 16.5613 13.0643C16.995 13.1226 17.131 13.2168 17.2071 13.2929C17.2832 13.369 17.3774 13.505 17.4357 13.9387C17.4979 14.4012 17.5 15.0289 17.5 16H19.5L19.5 15.9342C19.5001 15.0477 19.5001 14.2839 19.4179 13.6722C19.3297 13.0167 19.131 12.3883 18.6213 11.8787C18.1117 11.369 17.4833 11.1703 16.8278 11.0821C16.2161 10.9999 15.4523 10.9999 14.5658 11L13 11V8H11V11Z" fill="white"/>
<path fill-rule="evenodd" clip-rule="evenodd" d="M12 4C11.1716 4 10.5 4.67157 10.5 5.5C10.5 6.32843 11.1716 7 12 7C12.8284 7 13.5 6.32843 13.5 5.5C13.5 4.67157 12.8284 4 12 4ZM8.5 5.5C8.5 3.567 10.067 2 12 2C13.933 2 15.5 3.567 15.5 5.5C15.5 7.433 13.933 9 12 9C10.067 9 8.5 7.433 8.5 5.5Z" fill="white"/>
<path fill-rule="evenodd" clip-rule="evenodd" d="M5.5 17C4.67157 17 4 17.6716 4 18.5C4 19.3284 4.67157 20 5.5 20C6.32843 20 7 19.3284 7 18.5C7 17.6716 6.32843 17 5.5 17ZM2 18.5C2 16.567 3.567 15 5.5 15C7.433 15 9 16.567 9 18.5C9 20.433 7.433 22 5.5 22C3.567 22 2 20.433 2 18.5Z" fill="white"/>
<path fill-rule="evenodd" clip-rule="evenodd" d="M18.5 17C17.6716 17 17 17.6716 17 18.5C17 19.3284 17.6716 20 18.5 20C19.3284 20 20 19.3284 20 18.5C20 17.6716 19.3284 17 18.5 17ZM15 18.5C15 16.567 16.567 15 18.5 15C20.433 15 22 16.567 22 18.5C22 20.433 20.433 22 18.5 22C16.567 22 15 20.433 15 18.5Z" fill="white"/>
</svg>

<svg width="24" height="24" fill="none" xmlns="http://www.w3.org/2000/svg"><path fill-rule="evenodd" clip-rule="evenodd" d="M11 11H9.434c-.886 0-1.65 0-2.262.082-.655.088-1.284.287-1.793.797-.51.51-.709 1.138-.797 1.793-.082.612-.082 1.376-.082 2.262V16h2c0-.971.002-1.599.064-2.061.059-.434.153-.57.229-.646.076-.076.212-.17.646-.229C7.9 13.002 8.529 13 9.5 13h5c.971 0 1.599.002 2.061.064.434.059.57.153.646.229.076.076.17.212.229.646.062.462.064 1.09.064 2.061h2v-.066c0-.886 0-1.65-.082-2.262-.088-.655-.287-1.284-.797-1.793-.51-.51-1.138-.709-1.793-.797C16.216 11 15.452 11 14.566 11H13V8h-2v3z" fill="#fff"/><path fill-rule="evenodd" clip-rule="evenodd" d="M12 4a1.5 1.5 0 1 0 0 3 1.5 1.5 0 0 0 0-3zM8.5 5.5a3.5 3.5 0 1 1 7 0 3.5 3.5 0 0 1-7 0zM5.5 17a1.5 1.5 0 1 0 0 3 1.5 1.5 0 0 0 0-3zM2 18.5a3.5 3.5 0 1 1 7 0 3.5 3.5 0 0 1-7 0zM18.5 17a1.5 1.5 0 1 0 0 3 1.5 1.5 0 0 0 0-3zM15 18.5a3.5 3.5 0 1 1 7 0 3.5 3.5 0 0 1-7 0z" fill="#fff"/></svg>
